X: 1517
T: Happy as a Big Sunflower
B: australian traditional tunes wiki
M:2/4
L:1/16
R: Polka
Q: 1/4=100
K:G
V:1 
dc|:"G"B2d2 b3c'|"A"b2a2 e3g|"D7"f2a2 e2f2|e2d2 "G"d2dc|B2d2 b3c'| "A"b2a2 e2g2|"D7"f2a2 e2f2|1"G"g4-g2dc:|2"G"g8||
"A"a2e2 a3g|"D7"g2f2- f2fe|"G"d2d2 b2a2|g4g4 |"A"a2e2 a3g|g2f2- f2fe|"D"f2e2 c2e2|"G"d4d2b2|
b2d2 "D7"efga|"G"b2g2 d2B2|"A"c2e2 g2e2|e2"G"d2-d4|"A"e2d2 e2f2|g2a2 b2e'2|"G"d'2b2 "D"a3b|a2"G"g2-g4||
% abcbook-tune_id 6342d53afab2cc4bf45f6f10


% abcbook-boost 0
% abcbook-tablature 
% abcbook-transpose 
% abcbook-lastupdated 1665324368922
% abcbook-soundfonts 
% abcbook-repeats 1
% NFF Book 2008

